X:211
T: REDLICH IST DER DEUTSCHE MANN
N: E1350
O: Europa, Mitteleuropa, Deutschland, Ober - Hessen, Giessen
R: Staende -, Soldaten -, Kriegs - Lied
M: 4/4
L: 1/8
K: G
DD | B3AG2FG | A4z2
AB | c3ed2c2 | c2B2z2
GA | B2B2c2d2 | e3cA2
AA | d3dddcc | B4z2
GA | B2B2c2d2 | e3cA2
AA | d3dddcc | B4z2

@@@ Tune index: 4895
